dji-master/img/icons/white-arrow.svg

<svg width="30" height="30" viewBox="0 0 30 30" fill="none" xmlns="http://www.w3.org/2000/svg">
<g clip-path="url(#clip0)">
<path d="M15 1.31134e-06C6.72794 2.03451e-06 -2.03451e-06 6.72794 -1.31134e-06 15C-5.88175e-07 23.2721 6.72794 30 15 30C23.2721 30 30 23.2721 30 15C30 6.72794 23.2721 5.88175e-07 15 1.31134e-06ZM15 28.7868C7.39583 28.7868 1.21324 22.6042 1.21323 15C1.21323 7.39584 7.39583 1.21324 15 1.21324C22.6042 1.21324 28.7868 7.39583 28.7868 15C28.7868 22.6042 22.6042 28.7868 15 28.7868Z" fill="white"/>
<path d="M17.1251 10.3333C17.004 10.2205 16.8382 10.1611 16.6789 10.1611C16.5195 10.1611 16.3538 10.2205 16.2326 10.3333L11.4964 14.7448C11.3753 14.8576 11.3115 15.006 11.3115 15.1604C11.3115 15.3148 11.3753 15.4632 11.4964 15.576L16.2326 19.9875C16.4812 20.219 16.8765 20.219 17.1251 19.9875C17.3737 19.7559 17.3737 19.3878 17.1251 19.1562L12.835 15.1604L17.1251 11.1645C17.3673 10.933 17.3673 10.5589 17.1251 10.3333Z" fill="white"/>
</g>
<defs>
<clipPath id="clip0">
<rect width="30" height="30" fill="white" transform="translate(30 30) rotate(180)"/>
</clipPath>
</defs>
</svg>

<svg width="30" height="30" fill="none" xmlns="http://www.w3.org/2000/svg"><g clip-path="url(#clip0)" fill="#fff"><path d="M15 0C6.728 0 0 6.728 0 15s6.728 15 15 15 15-6.728 15-15S23.272 0 15 0zm0 28.787C7.396 28.787 1.213 22.604 1.213 15 1.213 7.396 7.396 1.213 15 1.213c7.604 0 13.787 6.183 13.787 13.787 0 7.604-6.183 13.787-13.787 13.787z"/><path d="M17.125 10.333a.663.663 0 00-.892 0l-4.737 4.412a.564.564 0 00-.184.415c0 .155.063.303.184.416l4.737 4.412a.66.66 0 00.892 0 .557.557 0 000-.832l-4.29-3.996 4.29-3.995a.566.566 0 000-.832z"/></g><defs><clipPath id="clip0"><path fill="#fff" transform="rotate(180 15 15)" d="M0 0h30v30H0z"/></clipPath></defs></svg>
